X:222
T:Reel 222
M:4/4
K:Dmaj
L:1/8
dB|ADD (3DDD A2Bc|AD (3DDD F2GB|AD (3DDD A2Bc||=cAGE =cAG:||2AG (3EFG AB=ce|dc|dcAB =c2AB|=cdBc dcAG|A=cBG AGAB|=cAGB ADDc|dBAB c2cA|cABc A2Bc| (3cde dB c2Bd|eaag edd|
